Newaita-dark/devices/symbolic/drive-harddisk-ieee1394-symbolic.symbolic.svg

<svg height="16" viewBox="0 0 16 16" width="16" xmlns="http://www.w3.org/2000/svg"><path d="m3.308594 1.449219c-.367188 0-.664063.292969-.664063.660156v11.90625c0 .367187.296875.664063.664063.664063h9.261718c.363282 0 .660157-.296876.660157-.664063v-11.90625c0-.367187-.296875-.660156-.660157-.660156zm4.628906 1.320312c1.832031 0 3.308594 1.476563 3.308594 3.308594s-1.476563 3.308594-3.308594 3.308594h-2.644531c-.367188 0-.664063-.296875-.664063-.660157v-2.648437c0-1.832031 1.476563-3.308594 3.308594-3.308594zm0 1.324219c-1.097656 0-1.984375.886719-1.984375 1.984375 0 1.101563.886719 1.984375 1.984375 1.984375 1.101562 0 1.984375-.882812 1.984375-1.984375 0-1.097656-.882813-1.984375-1.984375-1.984375zm-1.984375 7.277344h3.96875c.367187 0 .664063.292968.664063.660156s-.296876.664062-.664063.664062h-3.96875c-.367187 0-.660156-.296874-.660156-.664062s.292969-.660156.660156-.660156zm0 0" fill="#eee"/></svg>

<?xml version="1.0" encoding="UTF-8"?>
<svg xmlns="http://www.w3.org/2000/svg" xmlns:xlink="http://www.w3.org/1999/xlink" width="16px" height="16px" viewBox="0 0 16 16" version="1.1">
<g id="surface1">
<path style=" stroke:none;fill-rule:nonzero;fill:rgb(93.333334%,93.333334%,93.333334%);fill-opacity:1;" d="M 3.308594 1.449219 C 2.941406 1.449219 2.644531 1.742188 2.644531 2.109375 L 2.644531 14.015625 C 2.644531 14.382812 2.941406 14.679688 3.308594 14.679688 L 12.570312 14.679688 C 12.933594 14.679688 13.230469 14.382812 13.230469 14.015625 L 13.230469 2.109375 C 13.230469 1.742188 12.933594 1.449219 12.570312 1.449219 Z M 7.9375 2.769531 C 9.769531 2.769531 11.246094 4.246094 11.246094 6.078125 C 11.246094 7.910156 9.769531 9.386719 7.9375 9.386719 L 5.292969 9.386719 C 4.925781 9.386719 4.628906 9.089844 4.628906 8.726562 L 4.628906 6.078125 C 4.628906 4.246094 6.105469 2.769531 7.9375 2.769531 Z M 7.9375 4.09375 C 6.839844 4.09375 5.953125 4.980469 5.953125 6.078125 C 5.953125 7.179688 6.839844 8.0625 7.9375 8.0625 C 9.039062 8.0625 9.921875 7.179688 9.921875 6.078125 C 9.921875 4.980469 9.039062 4.09375 7.9375 4.09375 Z M 5.953125 11.371094 L 9.921875 11.371094 C 10.289062 11.371094 10.585938 11.664062 10.585938 12.03125 C 10.585938 12.398438 10.289062 12.695312 9.921875 12.695312 L 5.953125 12.695312 C 5.585938 12.695312 5.292969 12.398438 5.292969 12.03125 C 5.292969 11.664062 5.585938 11.371094 5.953125 11.371094 Z M 5.953125 11.371094 "/>
</g>
</svg>
